src/resources/svg/icons-sprite.svg

<svg fill="none" height="32" viewBox="0 0 32 32" width="32" xmlns="http://www.w3.org/2000/svg" xmlns:xlink="http://www.w3.org/1999/xlink"><linearGradient id="a"><stop offset="0" stop-color="#ff9574"/><stop offset="1" stop-color="#ff4c8c"/></linearGradient><linearGradient id="b" gradientUnits="userSpaceOnUse" x1="0" x2="32" xlink:href="#a" y1="15.674" y2="15.674"/><linearGradient id="c" gradientUnits="userSpaceOnUse" x1="8.034" x2="22.344" xlink:href="#a" y1="15.828" y2="15.828"/><rect height="31" rx="3.5" stroke="url(#b)" width="31" x=".5" y=".5"/><path clip-rule="evenodd" d="m16.4329 7.53454.3333 3.03336c.7-.0889 2.4067-.0534 3.6333.8l1.4-2.96669c-.7-.41111-2.7533-1.16-5.3666-.86667zm-.9651.16794.3 3.03332c-.4445.1556-1.48.5934-2.0667 1.1l-2.3333-1.99998c.5-.5 2.02-1.62667 4.1-2.13334zm-2.535 4.83202-2.2667-2c-1.06665.96-1.8222 2.6-2.06664 3.3l3.23334.6333c.1333-.6133.7889-1.5444 1.1-1.9333zm-1.4 2.9333-3.23334-.6333c-.48 1.7333-.2 3.7445 0 4.5333l2.86664-.7.3-1.0666zm-.0348 5.6327.9666-3.3666v-1.2667c2.0778.1556 6.8934.0533 9.5334-1.6.2666.5.3866.8867.3333 4.1667h-1v-.9334h-5.7c-.2111 1.0667-1.3333 3.16-4.1333 3zm7.7003-1.9983h-2.2c-.2934 4.1334 2.9667 5.3445 4.6333 5.4334v-2.8334l-2.4333-1.7zm-6.6001-3.6676c2.0667.1333 6.76.02 9-1.5-.5444-.9445-2.2666-2.74-4.8-2.3667-3.1666.4667-4.2 3.2667-4.2 3.8667z" fill="url(#c)" fill-rule="evenodd"/></svg>

<svg width="32" height="32" viewBox="0 0 32 32" fill="none" xmlns="http://www.w3.org/2000/svg">
  <rect x="0.5" y="0.5" width="31" height="31" rx="3.5" stroke="url(#paint0_linear_12:129)"/>
  <path fill-rule="evenodd" clip-rule="evenodd" d="M16.4329 7.53454L16.7662 10.5679C17.4662 10.479 19.1729 10.5145 20.3995 11.3679L21.7995 8.40121C21.0995 7.9901 19.0462 7.24121 16.4329 7.53454ZM15.4678 7.70248L15.7678 10.7358C15.3233 10.8914 14.2878 11.3292 13.7011 11.8358L11.3678 9.83582C11.8678 9.33582 13.3878 8.20915 15.4678 7.70248ZM12.9328 12.5345L10.6661 10.5345C9.59945 11.4945 8.8439 13.1345 8.59946 13.8345L11.8328 14.4678C11.9661 13.8545 12.6217 12.9234 12.9328 12.5345ZM11.5328 15.4678L8.29946 14.8345C7.81946 16.5678 8.09946 18.579 8.29946 19.3678L11.1661 18.6678L11.4661 17.6012L11.5328 15.4678ZM11.498 21.1005L12.4646 17.7339V16.4672C14.5424 16.6228 19.358 16.5205 21.998 14.8672C22.2646 15.3672 22.3846 15.7539 22.3313 19.0339H21.3313V18.1005H15.6313C15.4202 19.1672 14.298 21.2605 11.498 21.1005ZM19.1983 19.1022H16.9983C16.7049 23.2356 19.965 24.4467 21.6316 24.5356V21.7022L19.1983 20.0022V19.1022ZM12.5982 15.4346C14.6649 15.5679 19.3582 15.4546 21.5982 13.9346C21.0538 12.9901 19.3316 11.1946 16.7982 11.5679C13.6316 12.0346 12.5982 14.8346 12.5982 15.4346Z" fill="url(#paint1_linear_12:129)"/>
  <defs>
    <linearGradient id="paint0_linear_12:129" x1="-1.14294e-07" y1="15.6735" x2="32" y2="15.6735" gradientUnits="userSpaceOnUse">
      <stop stop-color="#FF9574"/>
      <stop offset="1" stop-color="#FF4C8C"/>
    </linearGradient>
    <linearGradient id="paint1_linear_12:129" x1="8.03442" y1="15.8277" x2="22.3437" y2="15.8277" gradientUnits="userSpaceOnUse">
      <stop stop-color="#FF9574"/>
      <stop offset="1" stop-color="#FF4C8C"/>
    </linearGradient>
  </defs>
</svg>
